svg/u1f9cf_1f3fc_200d_2642.svg

<svg viewBox="0 0 128 128" xmlns="http://www.w3.org/2000/svg">
  <linearGradient id="SVGID_1_" gradientTransform="matrix(1 0 0 -1 0 128)" gradientUnits="userSpaceOnUse" x1="85.1429" x2="85.701" y1="31.1378" y2="2.6728">
    <stop offset="0" stop-color="#00BFA5"/>
    <stop offset="0.4701" stop-color="#00B29A"/>
    <stop offset="1" stop-color="#009E89"/>
  </linearGradient>
  <path d="M121.39,95.11c-19.84,0-59.38,10.01-74.61,28.89h1.9h2.12H124V98.14v-1.51v-1.5 C123.13,95.12,122.26,95.11,121.39,95.11z" fill="url(#SVGID_1_)"/>
  <linearGradient id="shadow_x5F_shirt_2_" gradientTransform="matrix(1 0 0 -1 0 128)" gradientUnits="userSpaceOnUse" x1="75.2228" x2="88.2075" y1="16.3885" y2="10.3533">
    <stop offset="0.1968" stop-color="#262626"/>
    <stop offset="1" stop-color="#262626" stop-opacity="0"/>
  </linearGradient>
  <path id="shadow_x5F_shirt_1_" d="M95.92,98.57 c-14.56,4.01-28.72,7.54-39.97,16.58c-1.02,3.15-2.06,6.36-2.85,8.85h29.32L95.92,98.57z" enable-background="new " fill="url(#shadow_x5F_shirt_2_)" opacity="0.35"/>
  <g id="neck">
    <path d="M104.38,75.85v18.58c0,8.24,6.67,14.94,14.86,14.94c0,0,4.27-0.03,4.75-0.08V75.85H104.38z" fill="#C48E6A"/>
  </g>
  <g id="ears">
    <path d="M120.88,11.1H83.94H70.82c-10.49,0-19.08,9.15-19.08,20.32s8.59,20.32,19.08,20.32h13.12h36.94V11.1 z" fill="#C48E6A"/>
  </g>
  <path id="head" d="M61.29,11.85c0.66,22.24,7.37,42.68,18.9,57.54c10.77,13.89,25.09,21.85,39.3,21.85 c1.51,0,3.01-0.1,4.51-0.27V4H71.58L61.36,5C61.23,7.56,61.21,9.18,61.29,11.85z" fill="#E0BB95"/>
  <path id="mouth" d="M104.54,59.65c-3.26-1.94-6.59,1.03-5.24,3.99c1.33,2.91,11.48,9.66,20.25,9.66 c1.46,0,2.96-0.2,4.45-0.53V62.02C116.67,62.55,108.08,61.76,104.54,59.65z" fill="#6D4C41"/>
  <path id="nose" d="M113.19,45.1c-0.19,0.02-0.39,0.07-0.57,0.15c-1.14,0.46-1.77,1.65-1.23,2.91 c0.54,1.26,3.05,4.8,8.1,4.8c1.83,0,3.32-0.47,4.51-1.12V45.1L113.19,45.1L113.19,45.1z" fill="#C48E6A"/>
  <ellipse id="eye" cx="90.21" cy="28.78" fill="#5D4037" rx="8.78" ry="9.09"/>
  <path id="eyebrow" d="M80.25,16.99c4.15-1.77,8.25-2.76,12.81-2.15c2.08,0.28,4.09,0.89,6.01,1.71 c1.49,0.63,3.16,1.16,4.4-0.28c1.51-1.75,0.17-3.66-1.13-4.99c-1.57-1.61-3.54-2.82-5.63-3.63c-4.75-1.84-10.36-1.61-14.88,0.79 c-1.96,1.04-4.12,2.52-5.21,4.53C75.38,15.28,77.77,18,80.25,16.99z" fill="#AB872F"/>
  <linearGradient id="shadow_x5F_face_2_" gradientTransform="matrix(1 0 0 -1 0 128)" gradientUnits="userSpaceOnUse" x1="90.5908" x2="97.3638" y1="52.2088" y2="54.662">
    <stop offset="0.1968" stop-color="#262626"/>
    <stop offset="1" stop-color="#262626" stop-opacity="0"/>
  </linearGradient>
  <path id="shadow_x5F_face_1_" d="M94.94,69.13 c-3.31-5.56-7.46-3.8-9.82-2.62c-2.35,1.18-1.84,6.85-1.84,6.85c4.25,4.67,8.92,8.53,13.85,11.46C94.43,76.5,97.31,73.1,94.94,69.13 z" enable-background="new " fill="url(#shadow_x5F_face_2_)" opacity="0.35"/>
  <linearGradient id="SVGID_2_" gradientTransform="matrix(1 0 0 -1 0 128)" gradientUnits="userSpaceOnUse" x1="68.6415" x2="32.502" y1="10.7944" y2="12.4688">
    <stop offset="0" stop-color="#00BFA5"/>
    <stop offset="0.4701" stop-color="#00B29A"/>
    <stop offset="1" stop-color="#009E89"/>
  </linearGradient>
  <path d="M66.76,116.69c-3.4-3.06-25.54-9.18-25.54-9.18c-0.83-0.33-1.62-0.48-2.36-0.48 c-3.24,0-5.57,2.82-7.18,5.07l-6.3,11.9h1.7h1.7h35.78h1.6h1.57C68.56,121.22,69.07,118.77,66.76,116.69z" fill="url(#SVGID_2_)"/>
  <g id="hand_x5F_left_1_">
    <linearGradient id="hand_x5F_fill_2_" gradientTransform="matrix(1 0 0 -1 0 128)" gradientUnits="userSpaceOnUse" x1="87.379" x2="46.0767" y1="60.9737" y2="14.6482">
      <stop offset="0.5" stop-color="#E0BB95"/>
      <stop offset="1" stop-color="#CCA47A"/>
    </linearGradient>
    <path id="hand_x5F_fill_1_" d="M56.12,119.35c14.59,0.56,19.9-10,20.99-19.97 c0.63-5.76-0.32-11.23-0.32-11.23s7.37-3.97,12.69-13.62c1.19-2.17,1.7-5.73-0.4-7.87c-2.2-2.24-6.29-2.95-9.98,1.2 c-4.42,4.64-6.63,6.89-14.72,10.97c-6.59,3.33-15.88,4.24-22.13,10.24C29.98,100.84,40.57,118.76,56.12,119.35z" fill="url(#hand_x5F_fill_2_)"/>
    <path id="tone_2_" d="M58.6,96.6c-1.12-4.98-3.83-7.91-7.89-9.08c-3-0.86-4.99-0.82-1.44,0.92 c3.84,1.88,6.05,4.97,6.89,8.71c0.99,4.39-1.1,7.37-3.6,8.37c-1.42,0.57-3.5,0.63-4.53-1.17c-1.82-3.17,1.59-4.96,1.6-4.96 c0.63-0.28,0.92-1.02,0.64-1.65s-1.01-0.92-1.65-0.64c-0.11,0.05-2.49,1.31-3.52,3.74c-1.02,2.4,0.17,7.54,5.71,7.54 c0.87,0,1.8-0.12,2.68-0.54C60.05,104.78,59.07,98.64,58.6,96.6z" fill="#BA8F63"/>
    <path id="tone_1_" d="M68.86,94.03c-1.12-4.98-3.83-7.91-7.89-9.08c-3-0.86-4.99-0.82-1.44,0.92 c3.84,1.88,6.05,4.97,6.89,8.71c0.99,4.39-1.1,7.37-3.6,8.37c-1.42,0.57-3.5,0.63-4.53-1.17c-0.03-0.05-0.05-0.1-0.08-0.15 l-1.6,2.48c0.97,1,2.41,1.7,4.45,1.7c0.87,0,1.8-0.12,2.68-0.54C70.3,102.21,69.32,96.07,68.86,94.03z" fill="#BA8F63"/>
    <path id="tone" d="M77.52,90.72c-1.12-4.98-3.83-7.91-7.89-9.08c-3-0.86-5-0.82-1.44,0.92 c3.84,1.88,6.05,4.97,6.89,8.71c0.99,4.39-1.1,7.37-3.6,8.37c-1.14,0.46-2.69,0.57-3.8-0.33c-0.33,0.64-0.81,1.57-1.22,2.4 c0.86,0.49,1.94,0.79,3.27,0.79c0.87,0,1.8-0.12,2.68-0.54C78.97,98.9,77.98,92.76,77.52,90.72z" fill="#BA8F63"/>
  </g>
  <g id="thumb_x5F_left_1_">
    <g id="finger">
      <linearGradient id="SVGID_3_" gradientTransform="matrix(1 0 0 -1 0 128)" gradientUnits="userSpaceOnUse" x1="64.6205" x2="79.0941" y1="25.602" y2="25.602">
        <stop offset="0.5" stop-color="#E0BB95"/>
        <stop offset="1" stop-color="#CCA47A"/>
      </linearGradient>
      <path d="M78.22,98.5c1.88,2.95,0.79,7.36-3.92,9.35c-4.03,1.71-7.22,0.86-8.68-1.27 c-1.97-2.89-1.04-7.18,2.8-9.27S76.46,95.74,78.22,98.5z" fill="url(#SVGID_3_)"/>
    </g>
    <path id="tone_3_" d="M78.89,102.8c-0.48,2.07-1.74,4.07-3.63,5.39c-0.94,0.66-2.02,1.13-3.16,1.42 c-1.14,0.26-2.34,0.31-3.55,0.13c-1.19-0.22-2.44-0.67-3.44-1.74c-0.24-0.26-0.48-0.61-0.63-0.91c-0.12-0.26-0.25-0.52-0.36-0.79 c-0.21-0.55-0.41-1.11-0.5-1.71c-0.22-1.18-0.11-2.5,0.42-3.6c0.52-1.11,1.41-1.93,2.4-2.41c-0.45,1.02-0.8,1.97-0.88,2.88 c-0.09,0.9,0.04,1.76,0.32,2.6c0.14,0.42,0.31,0.84,0.5,1.26c0.09,0.21,0.21,0.42,0.31,0.63c0.08,0.17,0.15,0.25,0.25,0.39 c0.43,0.48,1.22,0.88,2.06,1.07c0.85,0.21,1.79,0.26,2.7,0.13c0.93-0.09,1.84-0.36,2.7-0.77C76.18,105.97,77.68,104.55,78.89,102.8 z" fill="#BA8F63"/>
  </g>
  <g id="hairGroup">
    <path id="hair" d="M71.58,4c-0.1,0.37-0.2,0.75-0.3,1.13c-0.46,1.77-0.92,3.59-1.37,5.44 c-0.13,0.5-0.25,1-0.38,1.51c0,0.02-0.01,0.04-0.01,0.06c-0.51,2.07-1.01,4.15-1.49,6.16c-0.13,0.55-0.26,1.08-0.38,1.6 c-0.17,0.72-0.34,1.43-0.5,2.12c-0.01,0.03-0.01,0.06-0.02,0.09c-0.1,0.45-0.21,0.9-0.31,1.33c-0.07,0.29-0.13,0.58-0.2,0.86 c-0.09,0.4-0.18,0.79-0.27,1.18c-0.06,0.25-0.12,0.5-0.17,0.74C66.09,26.61,66,27,65.91,27.37c-0.01,0.06-0.02,0.12-0.03,0.17 c-0.08,0.35-0.16,0.68-0.23,1.01c-0.15,0.63-0.28,1.23-0.41,1.79c-0.15,0.67-0.29,1.28-0.41,1.83c-0.1,0.4-0.18,0.76-0.25,1.09 c0,0.02-0.01,0.04-0.01,0.06c-0.14,0.6-0.97,0.67-1.19,0.09c-1.08-2.73-3.02-7.82-4.14-10.76l-0.43-1.12l-0.44-1.15 c0,0-1.2-6.69-1.32-16.38L71.58,4L71.58,4z" fill="#AB872F"/>
    <radialGradient id="hairHighlights_1_" cx="154.7199" cy="130.7074" gradientTransform="matrix(1 0 0 -1.1282 0 144.7567)" gradientUnits="userSpaceOnUse" r="101.6437">
      <stop offset="0.8674" stop-color="#BFA055" stop-opacity="0"/>
      <stop offset="1" stop-color="#BFA055"/>
    </radialGradient>
    <path id="hairHighlights" d="M57.05,4h14.52c-0.09,0.37-0.19,0.75-0.29,1.13 c-0.46,1.77-0.92,3.59-1.37,5.44c-0.13,0.5-0.25,1-0.38,1.51c0,0.02-0.01,0.04-0.01,0.06c-0.51,2.07-1.01,4.15-1.49,6.16 c-0.13,0.55-0.26,1.08-0.38,1.6c-0.17,0.72-0.34,1.43-0.5,2.12c-0.01,0.03-0.01,0.06-0.02,0.09c-0.1,0.45-0.21,0.9-0.31,1.33 c-0.07,0.29-0.13,0.58-0.2,0.86c-0.09,0.4-0.18,0.79-0.27,1.18c-0.06,0.25-0.12,0.5-0.17,0.74C66.09,26.61,66,27,65.91,27.37 c-0.01,0.06-0.02,0.12-0.03,0.17c-0.08,0.35-0.16,0.68-0.23,1.01c-0.15,0.63-0.28,1.23-0.41,1.79c-0.15,0.67-0.29,1.28-0.41,1.83 c-0.1,0.4-0.18,0.76-0.25,1.09c-0.13,0.6-0.96,0.66-1.18,0.09l-4.59-11.82l-0.44-1.15C58.37,20.38,57.17,13.69,57.05,4z" fill="url(#hairHighlights_1_)"/>
  </g>
  <g id="arrow_1_">
    <path d="M19.2,33.14 c0,32.01,19.62,42.4,19.62,42.4" fill="none" stroke="#B0BEC5" stroke-linejoin="round" stroke-miterlimit="10" stroke-width="4"/>
    <polygon fill="#B0BEC5" points="41.14,66.27 30.91,77.86 44.45,80.83 "/>
  </g>
</svg>

<svg viewBox="0 0 128 128" xmlns="http://www.w3.org/2000/svg">
  <defs>
    <linearGradient id="SVGID_1_" gradientTransform="matrix(1 0 0 -1 0 0)" gradientUnits="userSpaceOnUse" x1="85.1429" x2="85.701" y1="-96.8622" y2="-125.3272">
      <stop offset="0" stop-color="#00BFA5"/>
      <stop offset="0.4701" stop-color="#00B29A"/>
      <stop offset="1" stop-color="#009E89"/>
    </linearGradient>
    <linearGradient id="shadow_x5F_shirt_2_" gradientTransform="matrix(1 0 0 -1 0 0)" gradientUnits="userSpaceOnUse" x1="75.2228" x2="88.2075" y1="-111.6115" y2="-117.6467">
      <stop offset="0.1968" stop-color="#262626"/>
      <stop offset="1" stop-color="#262626" stop-opacity="0"/>
    </linearGradient>
    <linearGradient id="shadow_x5F_face_2_" gradientTransform="matrix(1 0 0 -1 0 0)" gradientUnits="userSpaceOnUse" x1="90.5908" x2="97.3638" y1="-75.7912" y2="-73.338">
      <stop offset="0.1968" stop-color="#262626"/>
      <stop offset="1" stop-color="#262626" stop-opacity="0"/>
    </linearGradient>
    <linearGradient id="SVGID_2_" gradientTransform="matrix(1 0 0 -1 0 0)" gradientUnits="userSpaceOnUse" x1="68.6415" x2="32.502" y1="-117.2056" y2="-115.5312">
      <stop offset="0" stop-color="#00BFA5"/>
      <stop offset="0.4701" stop-color="#00B29A"/>
      <stop offset="1" stop-color="#009E89"/>
    </linearGradient>
    <linearGradient id="hand_x5F_fill_2_" gradientTransform="matrix(1 0 0 -1 0 0)" gradientUnits="userSpaceOnUse" x1="87.379" x2="46.0767" y1="-67.0263" y2="-113.3518">
      <stop offset="0.5" stop-color="#E0BB95"/>
      <stop offset="1" stop-color="#CCA47A"/>
    </linearGradient>
    <radialGradient id="hairHighlights_1_" cx="154.7199" cy="2.399742" gradientTransform="matrix(1 0 0 -1.1282 0 0)" gradientUnits="userSpaceOnUse" r="101.6437">
      <stop offset="0.8674" stop-color="#BFA055" stop-opacity="0"/>
      <stop offset="1" stop-color="#BFA055"/>
    </radialGradient>
    <linearGradient id="SVGID_3_" gradientTransform="matrix(1 0 0 -1 0 0)" gradientUnits="userSpaceOnUse" x1="64.6205" x2="79.0941" y1="-102.398" y2="-102.398">
      <stop offset="0.5" stop-color="#E0BB95"/>
      <stop offset="1" stop-color="#CCA47A"/>
    </linearGradient>
  </defs>
  <path d="M121.39,95.11 C101.55,95.11 62.01,105.12 46.78,124 L48.68,124 L50.8,124 L124,124 L124,98.14 L124,96.63 L124,95.13 C123.13,95.12 122.26,95.11 121.39,95.11 Z" fill="url(#SVGID_1_)"/>
  <path id="shadow_x5F_shirt_1_" d="M95.92,98.57 C81.36,102.58 67.2,106.11 55.95,115.15 C54.93,118.3 53.89,121.51 53.1,124 L82.42,124 L95.92,98.57 Z" fill="url(#shadow_x5F_shirt_2_)" opacity="0.35"/>
  <path d="M104.38,75.85 L104.38,94.43 C104.38,102.67 111.05,109.37 119.24,109.37 C119.24,109.37 123.51,109.34 123.99,109.29 L123.99,75.85 L104.38,75.85 Z" fill="#C48E6A"/>
  <path d="M120.88,11.1 L83.94,11.1 L70.82,11.1 C60.33,11.1 51.74,20.25 51.74,31.42 C51.74,42.59 60.33,51.74 70.82,51.74 L83.94,51.74 L120.88,51.74 L120.88,11.1 Z" fill="#C48E6A"/>
  <path id="head" d="M61.29,11.85 C61.95,34.09 68.66,54.53 80.19,69.39 C90.96,83.28 105.28,91.24 119.49,91.24 C121,91.24 122.5,91.14 124,90.97 L124,4 L71.58,4 L61.36,5 C61.23,7.56 61.21,9.18 61.29,11.85 Z" fill="#E0BB95"/>
  <path id="mouth" d="M104.54,59.65 C101.28,57.71 97.95,60.68 99.3,63.64 C100.63,66.55 110.78,73.3 119.55,73.3 C121.01,73.3 122.51,73.1 124,72.77 L124,62.02 C116.67,62.55 108.08,61.76 104.54,59.65 Z" fill="#6D4C41"/>
  <path id="nose" d="M113.19,45.1 C113,45.12 112.8,45.17 112.62,45.25 C111.48,45.71 110.85,46.9 111.39,48.16 C111.93,49.42 114.44,52.96 119.49,52.96 C121.32,52.96 122.81,52.49 124,51.84 L124,45.1 L113.19,45.1 L113.19,45.1 Z" fill="#C48E6A"/>
  <path id="eye" d="M98.99,28.78 A8.78 9.09 0 1 1 81.43,28.78 A8.78 9.09 0 1 1 98.99,28.78 Z" fill="#5D4037"/>
  <path id="eyebrow" d="M80.25,16.99 C84.4,15.22 88.5,14.23 93.06,14.84 C95.14,15.12 97.15,15.73 99.07,16.55 C100.56,17.18 102.23,17.71 103.47,16.27 C104.98,14.52 103.64,12.61 102.34,11.28 C100.77,9.67 98.8,8.46 96.71,7.65 C91.96,5.81 86.35,6.04 81.83,8.44 C79.87,9.48 77.71,10.96 76.62,12.97 C75.38,15.28 77.77,18 80.25,16.99 Z" fill="#AB872F"/>
  <path id="shadow_x5F_face_1_" d="M94.94,69.13 C91.63,63.57 87.48,65.33 85.12,66.51 C82.77,67.69 83.28,73.36 83.28,73.36 C87.53,78.03 92.2,81.89 97.13,84.82 C94.43,76.5 97.31,73.1 94.94,69.13 Z" fill="url(#shadow_x5F_face_2_)" opacity="0.35"/>
  <path d="M66.76,116.69 C63.36,113.63 41.22,107.51 41.22,107.51 C40.39,107.18 39.6,107.03 38.86,107.03 C35.62,107.03 33.29,109.85 31.68,112.1 L25.38,124 L27.08,124 L28.78,124 L64.56,124 L66.16,124 L67.73,124 C68.56,121.22 69.07,118.77 66.76,116.69 Z" fill="url(#SVGID_2_)"/>
  <path id="hand_x5F_fill_1_" d="M56.12,119.35 C70.71,119.91 76.02,109.35 77.11,99.38 C77.74,93.62 76.79,88.15 76.79,88.15 C76.79,88.15 84.16,84.18 89.48,74.53 C90.67,72.36 91.18,68.8 89.08,66.66 C86.88,64.42 82.79,63.71 79.1,67.86 C74.68,72.5 72.47,74.75 64.38,78.83 C57.79,82.16 48.5,83.07 42.25,89.07 C29.98,100.84 40.57,118.76 56.12,119.35 Z" fill="url(#hand_x5F_fill_2_)"/>
  <path id="tone_2_" d="M58.6,96.6 C57.48,91.62 54.77,88.69 50.71,87.52 C47.71,86.66 45.72,86.7 49.27,88.44 C53.11,90.32 55.32,93.41 56.16,97.15 C57.15,101.54 55.06,104.52 52.56,105.52 C51.14,106.09 49.06,106.15 48.03,104.35 C46.21,101.18 49.62,99.39 49.63,99.39 C50.26,99.11 50.55,98.37 50.27,97.74 C49.99,97.11 49.26,96.82 48.62,97.1 C48.51,97.15 46.13,98.41 45.1,100.84 C44.08,103.24 45.27,108.38 50.81,108.38 C51.68,108.38 52.61,108.26 53.49,107.84 C60.05,104.78 59.07,98.64 58.6,96.6 Z" fill="#BA8F63"/>
  <path id="tone_1_" d="M68.86,94.03 C67.74,89.05 65.03,86.12 60.97,84.95 C57.97,84.09 55.98,84.13 59.53,85.87 C63.37,87.75 65.58,90.84 66.42,94.58 C67.41,98.97 65.32,101.95 62.82,102.95 C61.4,103.52 59.32,103.58 58.29,101.78 C58.26,101.73 58.24,101.68 58.21,101.63 L56.61,104.11 C57.58,105.11 59.02,105.81 61.06,105.81 C61.93,105.81 62.86,105.69 63.74,105.27 C70.3,102.21 69.32,96.07 68.86,94.03 Z" fill="#BA8F63"/>
  <path id="tone" d="M77.52,90.72 C76.4,85.74 73.69,82.81 69.63,81.64 C66.63,80.78 64.63,80.82 68.19,82.56 C72.03,84.44 74.24,87.53 75.08,91.27 C76.07,95.66 73.98,98.64 71.48,99.64 C70.34,100.1 68.79,100.21 67.68,99.31 C67.35,99.95 66.87,100.88 66.46,101.71 C67.32,102.2 68.4,102.5 69.73,102.5 C70.6,102.5 71.53,102.38 72.41,101.96 C78.97,98.9 77.98,92.76 77.52,90.72 Z" fill="#BA8F63"/>
  <path d="M78.22,98.5 C80.1,101.45 79.01,105.86 74.3,107.85 C70.27,109.56 67.08,108.71 65.62,106.58 C63.65,103.69 64.58,99.4 68.42,97.31 C72.26,95.22 76.46,95.74 78.22,98.5 Z" fill="url(#SVGID_3_)"/>
  <path id="tone_3_" d="M78.89,102.8 C78.41,104.87 77.15,106.87 75.26,108.19 C74.32,108.85 73.24,109.32 72.1,109.61 C70.96,109.87 69.76,109.92 68.55,109.74 C67.36,109.52 66.11,109.07 65.11,108 C64.87,107.74 64.63,107.39 64.48,107.09 C64.36,106.83 64.23,106.57 64.12,106.3 C63.91,105.75 63.71,105.19 63.62,104.59 C63.4,103.41 63.51,102.09 64.04,100.99 C64.56,99.88 65.45,99.06 66.44,98.58 C65.99,99.6 65.64,100.55 65.56,101.46 C65.47,102.36 65.6,103.22 65.88,104.06 C66.02,104.48 66.19,104.9 66.38,105.32 C66.47,105.53 66.59,105.74 66.69,105.95 C66.77,106.12 66.84,106.2 66.94,106.34 C67.37,106.82 68.16,107.22 69,107.41 C69.85,107.62 70.79,107.67 71.7,107.54 C72.63,107.45 73.54,107.18 74.4,106.77 C76.18,105.97 77.68,104.55 78.89,102.8 Z" fill="#BA8F63"/>
  <path id="hair" d="M71.58,4 C71.48,4.37 71.38,4.75 71.28,5.13 C70.82,6.9 70.36,8.72 69.91,10.57 C69.78,11.07 69.66,11.57 69.53,12.08 C69.53,12.1 69.52,12.12 69.52,12.14 C69.01,14.21 68.51,16.29 68.03,18.3 C67.9,18.85 67.77,19.38 67.65,19.9 C67.48,20.62 67.31,21.33 67.15,22.02 C67.14,22.05 67.14,22.08 67.13,22.11 C67.03,22.56 66.92,23.01 66.82,23.44 C66.75,23.73 66.69,24.02 66.62,24.3 C66.53,24.7 66.44,25.09 66.35,25.48 C66.29,25.73 66.23,25.98 66.18,26.22 C66.09,26.61 66,27 65.91,27.37 C65.9,27.43 65.89,27.49 65.88,27.54 C65.8,27.89 65.72,28.22 65.65,28.55 C65.5,29.18 65.37,29.78 65.24,30.34 C65.09,31.01 64.95,31.62 64.83,32.17 C64.73,32.57 64.65,32.93 64.58,33.26 C64.58,33.28 64.57,33.3 64.57,33.32 C64.43,33.92 63.6,33.99 63.38,33.41 C62.3,30.68 60.36,25.59 59.24,22.65 L58.81,21.53 L58.37,20.38 C58.37,20.38 57.17,13.69 57.05,4 L71.58,4 L71.58,4 Z" fill="#AB872F"/>
  <path id="hairHighlights" d="M57.05,4 L71.57,4 C71.48,4.37 71.38,4.75 71.28,5.13 C70.82,6.9 70.36,8.72 69.91,10.57 C69.78,11.07 69.66,11.57 69.53,12.08 C69.53,12.1 69.52,12.12 69.52,12.14 C69.01,14.21 68.51,16.29 68.03,18.3 C67.9,18.85 67.77,19.38 67.65,19.9 C67.48,20.62 67.31,21.33 67.15,22.02 C67.14,22.05 67.14,22.08 67.13,22.11 C67.03,22.56 66.92,23.01 66.82,23.44 C66.75,23.73 66.69,24.02 66.62,24.3 C66.53,24.7 66.44,25.09 66.35,25.48 C66.29,25.73 66.23,25.98 66.18,26.22 C66.09,26.61 66,27 65.91,27.37 C65.9,27.43 65.89,27.49 65.88,27.54 C65.8,27.89 65.72,28.22 65.65,28.55 C65.5,29.18 65.37,29.78 65.24,30.34 C65.09,31.01 64.95,31.62 64.83,32.17 C64.73,32.57 64.65,32.93 64.58,33.26 C64.45,33.86 63.62,33.92 63.4,33.35 L58.81,21.53 L58.37,20.38 C58.37,20.38 57.17,13.69 57.05,4 Z" fill="url(#hairHighlights_1_)"/>
  <path d="M21.2,33.14 Q21.2,52.484 30.615,65.151 Q35.25,71.387 39.756,73.773 L37.884,77.307 Q32.58,74.498 27.405,67.537 Q17.2,53.808 17.2,33.14 Z" fill="#B0BEC5"/>
  <path d="M41.14,66.27 L30.91,77.86 L44.45,80.83 Z" fill="#B0BEC5"/>
</svg>
